X: 872
T: Blair Drummond's Reel
R: reel
B: Robert Bremner "A Collection of Scots Reels or Country Dances" 1757 p.87 #2
S: http://imslp.org/wiki/A_Collection_of_Scots_Reels_or_Country_Dances_(Bremner,_Robert)
Z: 2013 John Chambers <jc:trillian.mit.edu>
N: The first bar line should be an initial repeat.
M: C
L: 1/8
K: Amix
% - - - - - - - - - - - - - - - - - - - - - - - - -
V: 1
e |\
A/A/A Tc2 eaec | A/A/A Tc2 BgBG |\
A/A/A Tc2 eae(f | g)aef gdBG :|
|:\
a2 (e/f/^g) aecA | a2ef gdBG |\
a2eg fae(g | f)aef gdBG :|
% - - - - - - - - - - - - - - - - - - - - - - - - -
V: 2 clef=bass middle=d
z |\
a2a2 a2a2 | a2a2 g2g2 |\
a2a2 a2a2 | a2a2 g2g2 :|
|:\
a2a2 a2a2 | a2a2 g2g2 |\
a2a2 a2a2 | a2a2 g2g2 :|
% - - - - - - - - - - - - - - - - - - - - - - - - -

%%sep 1 1 500
%%sep 1 1 500
